svgs/light/spray-can.svg

<svg xmlns="http://www.w3.org/2000/svg" viewBox="0 0 512 512"><path d="M224 128V32c0-17.67-14.33-32-32-32h-64c-17.67 0-32 14.33-32 32v96c-53.02 0-96 42.98-96 96v256c0 17.67 14.33 32 32 32h256c17.67 0 32-14.33 32-32V224c0-53.02-42.98-96-96-96zm-96-96h64v96h-64V32zm160 448H32V224c0-35.29 28.71-64 64-64h128c35.29 0 64 28.71 64 64v256zM160 240c-44.18 0-80 35.82-80 80s35.82 80 80 80 80-35.82 80-80-35.82-80-80-80zm0 128c-26.47 0-48-21.53-48-48s21.53-48 48-48 48 21.53 48 48-21.53 48-48 48zM488 80c13.25 0 24-10.75 24-24 0-13.26-10.75-24-24-24s-24 10.74-24 24c0 13.25 10.75 24 24 24zm0 48c-13.25 0-24 10.74-24 24 0 13.25 10.75 24 24 24s24-10.75 24-24c0-13.26-10.75-24-24-24zm-96-96c-13.25 0-24 10.74-24 24 0 13.25 10.75 24 24 24s24-10.75 24-24c0-13.26-10.75-24-24-24zm0 96c-13.25 0-24 10.74-24 24 0 13.25 10.75 24 24 24s24-10.75 24-24c0-13.26-10.75-24-24-24zm-96-96c-13.25 0-24 10.74-24 24 0 13.25 10.75 24 24 24s24-10.75 24-24c0-13.26-10.75-24-24-24zm192 192c-13.25 0-24 10.74-24 24 0 13.25 10.75 24 24 24s24-10.75 24-24c0-13.26-10.75-24-24-24z"/></svg>

<svg xmlns="http://www.w3.org/2000/svg" viewBox="0 0 512 512"><!--! Font Awesome Pro 6.0.0-alpha3 by @fontawesome - https://fontawesome.com License - https://fontawesome.com/license (Commercial License) --><path d="M488 80C501.3 80 512 69.25 512 56S501.3 32 488 32S464 42.75 464 56S474.8 80 488 80zM160 240c-44.13 0-80 35.88-80 80s35.88 80 80 80s80-35.88 80-80S204.1 240 160 240zM160 368c-26.5 0-48-21.5-48-48S133.5 272 160 272S208 293.5 208 320S186.5 368 160 368zM488 224c-13.25 0-24 10.75-24 24s10.75 24 24 24S512 261.3 512 248S501.3 224 488 224zM392 32c-13.25 0-24 10.75-24 24s10.75 24 24 24S416 69.25 416 56S405.3 32 392 32zM224 128V32c0-17.6-14.4-32-32-32H128C110.4 0 96 14.4 96 32v96C43 128 0 171 0 224v224c0 35.2 28.8 64 64 64h192c35.2 0 64-28.8 64-64V224C320 171 277 128 224 128zM128 32h64v96H128V32zM288 448c0 17.67-14.33 32-32 32H64c-17.67 0-32-14.33-32-32V224c0-35.2 28.8-64 64-64h128c35.2 0 64 28.8 64 64V448zM488 128c-13.25 0-24 10.75-24 24s10.75 24 24 24S512 165.3 512 152S501.3 128 488 128zM392 128c-13.25 0-24 10.75-24 24s10.75 24 24 24S416 165.3 416 152S405.3 128 392 128zM296 32c-13.25 0-24 10.75-24 24s10.75 24 24 24S320 69.25 320 56S309.3 32 296 32z"/></svg>
